X:132
T:
S:Uppt. efter sjökapten N. P. Ahlström, Klintehamn.
N:Melodi a.
M:3/4
L:1/8
K:F
c|=B c d3 c|=B c f2 Hc c|=B c d3 c|
w:Ad-jö, ad-jö! Vi av-sked ta-ga. Vi mås-te fo-ga
B A G2 z c|=B c d3 c|=B c f2 Hc g|
w:oss om-bord. Ock vå-ra svens-ka flag-gor va-ja, ock
a b d3 g|(e/d/) e f2 z|:A|f e d3 A|
w:vin-den blå-ser god_ i nord. Kom, kom med jul-len,
c B A2 z A|G B d3 c|e c f2 z:|
w:kom ge-svint! Här blå-ser av en fog-lig vind.
